packages/icons/svgs/duotone/Source=statistics.svg

<svg width="24" height="24" viewBox="0 0 24 24" fill="none" xmlns="http://www.w3.org/2000/svg">
<g opacity="0.5">
<path fill-rule="evenodd" clip-rule="evenodd" d="M3 18C3.55228 18 4 18.4477 4 19V22C4 22.5523 3.55228 23 3 23C2.44772 23 2 22.5523 2 22V19C2 18.4477 2.44772 18 3 18Z" fill="black" style="fill:black;fill-opacity:1;"/>
<path fill-rule="evenodd" clip-rule="evenodd" d="M15 18C15.5523 18 16 18.4477 16 19V22C16 22.5523 15.5523 23 15 23C14.4477 23 14 22.5523 14 22V19C14 18.4477 14.4477 18 15 18Z" fill="black" style="fill:black;fill-opacity:1;"/>
</g>
<path fill-rule="evenodd" clip-rule="evenodd" d="M21.2929 1.29289C21.6834 0.902369 22.3166 0.902369 22.7071 1.29289C23.0976 1.68342 23.0976 2.31658 22.7071 2.70711L15.7071 9.70711C15.3166 10.0976 14.6834 10.0976 14.2929 9.70711L9 4.41421L2.70711 10.7071C2.31658 11.0976 1.68342 11.0976 1.29289 10.7071C0.902369 10.3166 0.902369 9.68342 1.29289 9.29289L8.29289 2.29289C8.68342 1.90237 9.31658 1.90237 9.70711 2.29289L15 7.58579L21.2929 1.29289Z" fill="black" style="fill:black;fill-opacity:1;"/>
<path fill-rule="evenodd" clip-rule="evenodd" d="M9 11C9.55228 11 10 11.4477 10 12V22C10 22.5523 9.55228 23 9 23C8.44772 23 8 22.5523 8 22V12C8 11.4477 8.44772 11 9 11Z" fill="black" style="fill:black;fill-opacity:1;"/>
<path fill-rule="evenodd" clip-rule="evenodd" d="M21 11C21.5523 11 22 11.4477 22 12V22C22 22.5523 21.5523 23 21 23C20.4477 23 20 22.5523 20 22V12C20 11.4477 20.4477 11 21 11Z" fill="black" style="fill:black;fill-opacity:1;"/>
</svg>

<svg xmlns="http://www.w3.org/2000/svg" width="24" height="24" viewBox="0 0 24 24"><path fill-rule="evenodd" d="M3 18a1 1 0 0 1 1 1v3a1 1 0 1 1-2 0v-3a1 1 0 0 1 1-1m12 0a1 1 0 0 1 1 1v3a1 1 0 1 1-2 0v-3a1 1 0 0 1 1-1" clip-rule="evenodd" opacity=".5"/><path fill-rule="evenodd" d="M21.293 1.293a1 1 0 1 1 1.414 1.414l-7 7a1 1 0 0 1-1.414 0L9 4.414l-6.293 6.293a1 1 0 0 1-1.414-1.414l7-7a1 1 0 0 1 1.414 0L15 7.586zM9 11a1 1 0 0 1 1 1v10a1 1 0 1 1-2 0V12a1 1 0 0 1 1-1m12 0a1 1 0 0 1 1 1v10a1 1 0 1 1-2 0V12a1 1 0 0 1 1-1" clip-rule="evenodd"/></svg>
